//COLOR=13_LX_SL_RuralOak_N; ID=13_LX_SL_RuralOak_N; CT=1;
G100 X3660.000 Y1835.000 Z13.000
//COMMENT=Z;CODE=M;
G8000 (Label Control)
G52 X0. Y0. (Modify this to shift program)
M60 (Vacuum On)
(MICROVELLUM GENERATED ON 9/02/2023 AT 1:28:19 PM)
(JOB NAME: 56204)
(MATERIAL NAME: 13_LX_SL_RuralOak_N)
(PANEL WIDTH: 1835.000 PANEL LENGTH: 3660.000)
(P09026415)
(USE TOOL: 1 - 12mm 2 Wing Compact Cutter)
(USE TOOL: 5 - 11mm Chamfer Cutter)
(USE TOOL: 6 - 12mm Offcut Rough Tool)
(USE TOOL: 13 - 20mm Bevel Cutter)
G8000(Label Control)
M82(Stops Down)
G0 G90 G53 Z0.
G40 G49 G80

(TOOL - 12mm 2 Wing Compact Cutter)
M6 T1 D1
S16000 M3
M28
G43 H1
G0 Z70.00
G0 X916.100 Y1574.252 Z33.000
M31
G1 G42 X910.000 Y1574.250 Z23.000 F8000.0
G1 Z23.000 F3000.0
G1 X910.000 Y1574.250 Z13.000 F3000.0
G1 X869.879 Y1574.235 Z0.400 F3000.0
G1 X859.938 Y1571.750 F8000.0
G1 X8.500 Y1571.750
G3 X4.500 Y1567.750 R4.000
G1 X4.500 Y8.500
G3 X8.500 Y4.500 R4.000
G1 X1701.500 Y4.500
G3 X1705.500 Y8.500 R4.000
G1 X1705.500 Y1567.750
G3 X1701.500 Y1571.750 R4.000
G1 X850.062 Y1571.750
G1 X840.121 Y1574.235
G1 X800.000 Y1574.250
G0 Z33.000
G1 G40 X793.900 Y1574.252 F3000.0
G0 X1099.650 Y1795.252 Z33.000
G1 G42 X1093.550 Y1795.250 Z23.000 F8000.0
G1 Z23.000 F3000.0
G1 X1093.550 Y1795.250 Z13.000 F3000.0
G1 X1053.429 Y1795.235 Z0.400 F3000.0
G1 X1043.488 Y1792.750 F8000.0
G1 X8.500 Y1792.750
G3 X4.500 Y1788.750 R4.000
G1 X4.500 Y1595.750
G3 X8.500 Y1591.750 R4.000
G1 X2068.600 Y1591.750
G3 X2072.600 Y1595.750 R4.000
G1 X2072.600 Y1788.750
G3 X2068.600 Y1792.750 R4.000
G1 X1033.612 Y1792.750
G1 X1023.671 Y1795.235
G1 X983.550 Y1795.250
G0 Z33.000