//COLOR=13_LX_SL_RuralOak_N; ID=13_LX_SL_RuralOak_N; CT=1;
G100 X3660.000 Y1835.000 Z13.000
//COMMENT=Z;CODE=M;
G8000 (Label Control)
G52 X0. Y0. (Modify this to shift program)
M60 (Vacuum On)
(MICROVELLUM GENERATED ON 9/02/2023 AT 1:28:19 PM)
(JOB NAME: 56204)
(MATERIAL NAME: 13_LX_SL_RuralOak_N)
(PANEL WIDTH: 1835.000 PANEL LENGTH: 3660.000)
(P09026415)
(USE TOOL: 1 - 12mm 2 Wing Compact Cutter)
G8000(Label Control)
M82(Stops Down)
G0 G90 G53 Z0.
G40 G49 G80
(TOOL - 12mm Offcut Rough Tool)
M6 T6 D6
S18000 M3
M28
G43 H6
G0 Z70.00
G0 X908.646 Y1848.100 Z33.000
M31
G1 X908.646 Y1842.000 Z23.000 F15000.0
G1 Z23.000 F4000.0
G1 X908.646 Y1842.000 Z5.000 F4000.0
G1 X908.646 Y1799.250 F15000.0
G0 Z33.000
G0 X2018.339 Y1848.100 Z33.000
G1 X2018.339 Y1842.000 Z23.000 F15000.0
G1 Z23.000 F4000.0
G1 X2018.339 Y1842.000 Z5.000 F4000.0
G1 X2018.339 Y1799.250 F15000.0
G0 Z33.000
G0 X2681.645 Y1848.100 Z33.000
G1 X2681.645 Y1842.000 Z23.000 F15000.0
G1 Z23.000 F4000.0
G1 X2681.645 Y1842.000 Z5.000 F4000.0
G1 X2681.645 Y1578.250 F15000.0
G0 Z33.000
G0 X3311.671 Y1848.100 Z33.000
G1 X3311.671 Y1842.000 Z23.000 F15000.0
G1 Z23.000 F4000.0
G1 X3311.671 Y1842.000 Z5.000 F4000.0
G1 X3311.671 Y1578.250 F15000.0
G0 Z33.000
G0 X3673.100 Y1484.001 Z33.000
G1 X3667.000 Y1484.001 Z23.000 F15000.0
G1 Z23.000 F4000.0
G1 X3667.000 Y1484.001 Z5.000 F4000.0
G1 X3433.000 Y1484.001 F15000.0
G0 Z33.000
G0 X3673.100 Y1835.000 Z33.000
G1 X3667.000 Y1835.000 Z23.000 F15000.0
G1 Z23.000 F4000.0
G1 X3667.000 Y1835.000 Z5.000 F4000.0
G1 X-7.000 Y1835.000 F15000.0
G0 Z33.000
G0 X3673.100 Y599.828 Z33.000
G1 X3667.000 Y599.828 Z23.000 F15000.0
G1 Z23.000 F4000.0
G1 X3667.000 Y599.828 Z5.000 F4000.0
G1 X3433.000 Y599.828 F15000.0
G0 Z33.000
G0 X908.646 Y1848.100 Z33.000
G1 X908.646 Y1842.000 Z23.000 F15000.0
G1 Z23.000 F4000.0
G1 X908.646 Y1842.000 Z-0.500 F4000.0
G1 X908.646 Y1799.250 F15000.0
G0 Z33.000
G0 X2018.339 Y1848.100 Z33.000
G1 X2018.339 Y1842.000 Z23.000 F15000.0
G1 Z23.000 F4000.0
G1 X2018.339 Y1842.000 Z-0.500 F4000.0
G1 X2018.339 Y1799.250 F15000.0
G0 Z33.000
G0 X2681.645 Y1848.100 Z33.000
G1 X2681.645 Y1842.000 Z23.000 F15000.0
G1 Z23.000 F4000.0
G1 X2681.645 Y1842.000 Z-0.500 F4000.0
G1 X2681.645 Y1578.250 F15000.0
G0 Z33.000
G0 X3311.671 Y1848.100 Z33.000
G1 X3311.671 Y1842.000 Z23.000 F15000.0
G1 Z23.000 F4000.0
G1 X3311.671 Y1842.000 Z-0.500 F4000.0
G1 X3311.671 Y1578.250 F15000.0
G0 Z33.000
G0 X3673.100 Y1484.001 Z33.000
G1 X3667.000 Y1484.001 Z23.000 F15000.0
G1 Z23.000 F4000.0
G1 X3667.000 Y1484.001 Z-0.500 F4000.0
G1 X3433.000 Y1484.001 F15000.0
G0 Z33.000
G0 X3673.100 Y1835.000 Z33.000
G1 X3667.000 Y1835.000 Z23.000 F15000.0
G1 Z23.000 F4000.0
G1 X3667.000 Y1835.000 Z-0.500 F4000.0
G1 X-7.000 Y1835.000 F15000.0
G0 Z33.000
G0 X3673.100 Y599.828 Z33.000
G1 X3667.000 Y599.828 Z23.000 F15000.0
G1 Z23.000 F4000.0
G1 X3667.000 Y599.828 Z-0.500 F4000.0
G1 X3433.000 Y599.828 F15000.0
G0 Z33.000
(ROUTER-BIT 12.000 DIA)
G0 G90 G55
M5
M32
G49
